src/components/atoms/Icon/svgs/server.svg

<svg width="24" height="24" viewBox="0 0 24 24" fill="none" xmlns="http://www.w3.org/2000/svg">
    <g clip-path="url(#clip0_210_1523)">
        <path
            d="M20 2H4C2.89543 2 2 2.89543 2 4V8C2 9.10457 2.89543 10 4 10H20C21.1046 10 22 9.10457 22 8V4C22 2.89543 21.1046 2 20 2Z"
            stroke="currentColor" stroke-width="2" stroke-linecap="round" stroke-linejoin="round" />
        <path
            d="M20 14H4C2.89543 14 2 14.8954 2 16V20C2 21.1046 2.89543 22 4 22H20C21.1046 22 22 21.1046 22 20V16C22 14.8954 21.1046 14 20 14Z"
            stroke="currentColor" stroke-width="2" stroke-linecap="round" stroke-linejoin="round" />
    </g>
    <defs>
        <clipPath id="clip0_210_1523">
            <rect width="24" height="24" fill="white" />
        </clipPath>
    </defs>
</svg>

<svg viewBox="0 0 24 24" fill="none" xmlns="http://www.w3.org/2000/svg">
    <g clip-path="url(#clip0_210_1523)" stroke="currentColor" stroke-width="2" stroke-linecap="round" stroke-linejoin="round">
        <path d="M20 2H4a2 2 0 00-2 2v4a2 2 0 002 2h16a2 2 0 002-2V4a2 2 0 00-2-2z"/>
        <path d="M20 14H4a2 2 0 00-2 2v4a2 2 0 002 2h16a2 2 0 002-2v-4a2 2 0 00-2-2z"/>
    </g>
    <defs>
        <clipPath id="clip0_210_1523">
            <path fill="#fff" d="M0 0h24v24H0z"/>
        </clipPath>
    </defs>
</svg>
